HTML/img/Rhythms/rhythm3.svg

<svg width="612" height="792" viewBox="0 0 140 50" xmlns="http://www.w3.org/2000/svg"><path class="StaffLines" fill="none" stroke="#000" stroke-width=".4" stroke-linejoin="bevel" d="M4.945 20.379h130.11"/><path class="BarLine" d="M125.821 18.68a1.093 1.093 0 01-.332-.801c0-.312.111-.579.332-.801.222-.221.489-.332.801-.332.313 0 .58.111.801.332.221.222.332.489.332.801 0 .313-.111.579-.332.801a1.092 1.092 0 01-.801.332c-.312 0-.579-.111-.801-.332M125.821 23.68a1.092 1.092 0 01-.332-.801c0-.312.111-.579.332-.8.222-.222.489-.332.801-.332.313 0 .58.11.801.332.221.221.332.488.332.8 0 .313-.111.58-.332.801a1.092 1.092 0 01-.801.332c-.312 0-.579-.111-.801-.332"/><path class="BarLine" fill="none" stroke="#000" stroke-width=".8" stroke-linejoin="bevel" d="M130.155 10.378V30.38"/><path class="BarLine" fill="none" stroke="#000" stroke-width="2.5" stroke-linejoin="bevel" d="M133.806 10.378V30.38"/><path class="Stem" fill="none" stroke="#000" stroke-width=".65" stroke-linecap="round" stroke-linejoin="bevel" d="M114.231 21.318V35.38M104.943 21.318V35.38M95.655 21.318V35.38M77.535 21.318v12.187M64.987 21.318V37.88M43.607 21.318v12.187"/><path class="Note" d="M118.3 17.625c.625 0 1.153.163 1.582.488.404.352.606.795.606 1.329 0 .898-.462 1.738-1.387 2.519-.937.781-1.94 1.172-3.008 1.172-.625 0-1.152-.163-1.582-.488a1.69 1.69 0 01-.605-1.328c0-.899.469-1.739 1.406-2.52.912-.781 1.908-1.172 2.988-1.172M109.013 17.625c.625 0 1.152.163 1.582.488.403.352.605.795.605 1.329 0 .898-.462 1.738-1.387 2.519-.937.781-1.94 1.172-3.007 1.172-.625 0-1.153-.163-1.582-.488a1.687 1.687 0 01-.606-1.328c0-.899.469-1.739 1.406-2.52.912-.781 1.908-1.172 2.989-1.172M99.725 17.625c.625 0 1.152.163 1.582.488.403.352.605.795.605 1.329 0 .898-.462 1.738-1.386 2.519-.938.781-1.941 1.172-3.008 1.172-.625 0-1.153-.163-1.582-.488a1.687 1.687 0 01-.606-1.328c0-.899.469-1.739 1.407-2.52.911-.781 1.907-1.172 2.988-1.172M81.604 17.625c.625 0 1.153.163 1.583.488.403.352.605.795.605 1.329 0 .898-.462 1.738-1.387 2.519-.937.781-1.94 1.172-3.008 1.172-.625 0-1.152-.163-1.582-.488a1.69 1.69 0 01-.605-1.328c0-.899.469-1.739 1.406-2.52.912-.781 1.908-1.172 2.988-1.172M69.056 17.625c.625 0 1.153.163 1.582.488.404.352.606.795.606 1.329 0 .898-.462 1.738-1.387 2.519-.937.781-1.94 1.172-3.008 1.172-.625 0-1.152-.163-1.582-.488a1.69 1.69 0 01-.605-1.328c0-.899.469-1.739 1.406-2.52.912-.781 1.908-1.172 2.988-1.172M47.676 17.625c.625 0 1.153.163 1.582.488.404.352.606.795.606 1.329 0 .898-.462 1.738-1.387 2.519-.937.781-1.94 1.172-3.008 1.172-.625 0-1.152-.163-1.582-.488a1.69 1.69 0 01-.605-1.328c0-.899.469-1.739 1.406-2.52.911-.781 1.908-1.172 2.988-1.172"/><path class="Clef" d="M17.95 25.379h-1.836c-.143 0-.215-.065-.215-.195v-9.61c0-.13.072-.195.215-.195h1.836c.13 0 .195.065.195.195v9.61c0 .13-.065.195-.195.195m-4.414 0H11.68c-.13 0-.195-.065-.195-.195v-9.61c0-.13.065-.195.195-.195h1.856c.143 0 .215.065.215.195v9.61c0 .13-.072.195-.215.195"/><path class="TimeSig" d="M31.023 10.633c.391 0 .723-.046.996-.137.273-.091.449-.137.527-.137a.29.29 0 01.215.078.29.29 0 01.078.137.3.3 0 01-.039.117l-5.683 6.602h3.34v-2.617c0-.17.045-.313.136-.43.156-.13.287-.208.391-.234.169-.079.377-.261.625-.547.208-.235.456-.645.742-1.231.039-.078.098-.117.176-.117.156 0 .247.091.273.273v4.903h1.426c.182 0 .287.097.313.293 0 .195-.105.293-.313.293H32.8v.156c0 .521.13.964.391 1.328.299.365.651.547 1.055.547.156 0 .234.078.234.234 0 .157-.078.235-.234.235-.274 0-.717-.039-1.329-.117-.559-.092-.996-.137-1.308-.137-.326 0-.762.045-1.309.137-.586.078-1.022.117-1.308.117-.157 0-.235-.078-.235-.235 0-.156.078-.234.235-.234.403 0 .755-.182 1.054-.547.274-.364.411-.807.411-1.328v-.156h-3.34c-.222 0-.378-.052-.469-.157a.37.37 0 01-.156-.312c0-.039.097-.176.293-.41a9.98 9.98 0 00.703-.957 24.1 24.1 0 00.82-1.367 7.816 7.816 0 00.684-1.836c.195-.703.293-1.42.293-2.149 0-.208.091-.312.273-.312.039 0 .124.019.254.058.039.013.12.033.244.059.124.026.225.052.303.078.234.039.456.059.664.059"/><path class="TimeSig" d="M31.023 20.633c.391 0 .723-.045.996-.136.273-.092.449-.137.527-.137a.29.29 0 01.215.078.29.29 0 01.078.137.3.3 0 01-.039.117l-5.683 6.601h3.34v-2.617c0-.169.045-.312.136-.429.156-.131.287-.209.391-.235.169-.078.377-.26.625-.547.208-.234.456-.644.742-1.23.039-.078.098-.117.176-.117.156 0 .247.091.273.273v4.902h1.426c.182 0 .287.098.313.293 0 .196-.105.293-.313.293H32.8v.157c0 .52.13.963.391 1.328.299.364.651.547 1.055.547.156 0 .234.078.234.234 0 .156-.078.234-.234.234-.274 0-.717-.039-1.329-.117-.559-.091-.996-.137-1.308-.137-.326 0-.762.046-1.309.137-.586.078-1.022.117-1.308.117-.157 0-.235-.078-.235-.234 0-.156.078-.234.235-.234.403 0 .755-.183 1.054-.547.274-.365.411-.808.411-1.328v-.157h-3.34c-.222 0-.378-.052-.469-.156a.37.37 0 01-.156-.312c0-.039.097-.176.293-.411.221-.26.455-.579.703-.957.286-.442.56-.898.82-1.367a7.816 7.816 0 00.684-1.836 8 8 0 00.293-2.148c0-.208.091-.313.273-.313.039 0 .124.02.254.059.039.013.12.032.244.059.124.026.225.052.303.078.234.039.456.058.664.058"/><path class="Beam" fill-rule="evenodd" d="M95.33 34.13h19.226v2.5H95.33v-2.5"/><path class="Hook" d="M69.213 23.407c.299 0 .618.489.957 1.465.325.964.488 1.882.488 2.754 0 .742-.182 1.478-.547 2.207a8.452 8.452 0 01-1.348 2.032l-1.601 1.796a10.15 10.15 0 00-1.328 1.993 4.922 4.922 0 00-.547 2.226h-.625v-5h.625a43.33 43.33 0 001.562-1.055c.313-.234.782-.625 1.407-1.171.507-.469.892-.951 1.152-1.446.273-.521.41-1.048.41-1.582 0-1.237-.358-2.467-1.074-3.691v-.078c0-.117.039-.215.117-.293a.487.487 0 01.352-.157"/><path class="Tuplet" d="M103.518 42.273c1.593-.26 2.39-.813 2.39-1.66 0-.273-.082-.493-.245-.66-.163-.167-.378-.25-.645-.25-.407 0-.78.223-1.12.67l-.16-.05c.167-.326.395-.584.685-.775.29-.19.608-.285.955-.285.4 0 .733.122 1 .366.267.243.4.552.4.924 0 .34-.108.613-.325.82-.217.207-.628.427-1.235.66v.03c.64.293.96.79.96 1.49 0 .693-.257 1.293-.77 1.8-.513.507-1.187.76-2.02.76-.747 0-1.12-.197-1.12-.59 0-.26.147-.39.44-.39.167 0 .39.1.67.3.28.2.51.3.69.3.36 0 .668-.152.925-.455.257-.303.385-.698.385-1.185 0-.627-.157-1.06-.47-1.3-.313-.24-.777-.36-1.39-.36v-.16"/><path class="NoteDot" d="M51.947 18.68a1.095 1.095 0 01-.332-.801c0-.313.111-.58.332-.801.222-.221.488-.332.801-.332.312 0 .579.111.801.332.221.221.332.488.332.801 0 .312-.111.579-.332.801a1.095 1.095 0 01-.801.332c-.313 0-.579-.111-.801-.332"/></svg>

<?xml version="1.0" encoding="utf-8"?>
<svg width="612px" height="792px" viewBox="0 0 140 50" xmlns="http://www.w3.org/2000/svg">
  <title>Rythm rythms</title>
  <desc>Generated by MuseScore 2.0.3</desc>
  <polyline class="StaffLines" fill="none" stroke="#000000" stroke-width="0.40" stroke-linejoin="bevel" points="4.945 20.379 135.055 20.379"/>
  <path class="BarLine" d="M 125.821 18.68 C 125.6 18.458 125.489 18.192 125.489 17.879 C 125.489 17.567 125.6 17.3 125.821 17.078 C 126.043 16.857 126.31 16.746 126.622 16.746 C 126.935 16.746 127.202 16.857 127.423 17.078 C 127.644 17.3 127.755 17.567 127.755 17.879 C 127.755 18.192 127.644 18.458 127.423 18.68 C 127.202 18.901 126.935 19.012 126.622 19.012 C 126.31 19.012 126.043 18.901 125.821 18.68"/>
  <path class="BarLine" d="M 125.821 23.68 C 125.6 23.459 125.489 23.192 125.489 22.879 C 125.489 22.567 125.6 22.3 125.821 22.079 C 126.043 21.857 126.31 21.747 126.622 21.747 C 126.935 21.747 127.202 21.857 127.423 22.079 C 127.644 22.3 127.755 22.567 127.755 22.879 C 127.755 23.192 127.644 23.459 127.423 23.68 C 127.202 23.901 126.935 24.012 126.622 24.012 C 126.31 24.012 126.043 23.901 125.821 23.68"/>
  <polyline class="BarLine" fill="none" stroke="#000000" stroke-width="0.80" stroke-linejoin="bevel" points="130.155 10.378 130.155 30.38"/>
  <polyline class="BarLine" fill="none" stroke="#000000" stroke-width="2.50" stroke-linejoin="bevel" points="133.806 10.378 133.806 30.38"/>
  <polyline class="Stem" fill="none" stroke="#000000" stroke-width="0.65" stroke-linecap="round" stroke-linejoin="bevel" points="114.231 21.318 114.231 35.38"/>
  <polyline class="Stem" fill="none" stroke="#000000" stroke-width="0.65" stroke-linecap="round" stroke-linejoin="bevel" points="104.943 21.318 104.943 35.38"/>
  <polyline class="Stem" fill="none" stroke="#000000" stroke-width="0.65" stroke-linecap="round" stroke-linejoin="bevel" points="95.655 21.318 95.655 35.38"/>
  <polyline class="Stem" fill="none" stroke="#000000" stroke-width="0.65" stroke-linecap="round" stroke-linejoin="bevel" points="77.535 21.318 77.535 33.505"/>
  <polyline class="Stem" fill="none" stroke="#000000" stroke-width="0.65" stroke-linecap="round" stroke-linejoin="bevel" points="64.987 21.318 64.987 37.88"/>
  <polyline class="Stem" fill="none" stroke="#000000" stroke-width="0.65" stroke-linecap="round" stroke-linejoin="bevel" points="43.607 21.318 43.607 33.505"/>
  <path class="Note" d="M 118.3 17.625 C 118.925 17.625 119.453 17.788 119.882 18.113 C 120.286 18.465 120.488 18.908 120.488 19.442 C 120.488 20.34 120.026 21.18 119.101 21.961 C 118.164 22.742 117.161 23.133 116.093 23.133 C 115.468 23.133 114.941 22.97 114.511 22.645 C 114.108 22.293 113.906 21.85 113.906 21.317 C 113.906 20.418 114.375 19.578 115.312 18.797 C 116.224 18.016 117.22 17.625 118.3 17.625"/>
  <path class="Note" d="M 109.013 17.625 C 109.638 17.625 110.165 17.788 110.595 18.113 C 110.998 18.465 111.2 18.908 111.2 19.442 C 111.2 20.34 110.738 21.18 109.813 21.961 C 108.876 22.742 107.873 23.133 106.806 23.133 C 106.181 23.133 105.653 22.97 105.224 22.645 C 104.82 22.293 104.618 21.85 104.618 21.317 C 104.618 20.418 105.087 19.578 106.024 18.797 C 106.936 18.016 107.932 17.625 109.013 17.625"/>
  <path class="Note" d="M 99.725 17.625 C 100.35 17.625 100.877 17.788 101.307 18.113 C 101.71 18.465 101.912 18.908 101.912 19.442 C 101.912 20.34 101.45 21.18 100.526 21.961 C 99.588 22.742 98.585 23.133 97.518 23.133 C 96.893 23.133 96.365 22.97 95.936 22.645 C 95.532 22.293 95.33 21.85 95.33 21.317 C 95.33 20.418 95.799 19.578 96.737 18.797 C 97.648 18.016 98.644 17.625 99.725 17.625"/>
  <path class="Note" d="M 81.604 17.625 C 82.229 17.625 82.757 17.788 83.187 18.113 C 83.59 18.465 83.792 18.908 83.792 19.442 C 83.792 20.34 83.33 21.18 82.405 21.961 C 81.468 22.742 80.465 23.133 79.397 23.133 C 78.772 23.133 78.245 22.97 77.815 22.645 C 77.412 22.293 77.21 21.85 77.21 21.317 C 77.21 20.418 77.679 19.578 78.616 18.797 C 79.528 18.016 80.524 17.625 81.604 17.625"/>
  <path class="Note" d="M 69.056 17.625 C 69.681 17.625 70.209 17.788 70.638 18.113 C 71.042 18.465 71.244 18.908 71.244 19.442 C 71.244 20.34 70.782 21.18 69.857 21.961 C 68.92 22.742 67.917 23.133 66.849 23.133 C 66.224 23.133 65.697 22.97 65.267 22.645 C 64.864 22.293 64.662 21.85 64.662 21.317 C 64.662 20.418 65.131 19.578 66.068 18.797 C 66.98 18.016 67.976 17.625 69.056 17.625"/>
  <path class="Note" d="M 47.676 17.625 C 48.301 17.625 48.829 17.788 49.258 18.113 C 49.662 18.465 49.864 18.908 49.864 19.442 C 49.864 20.34 49.402 21.18 48.477 21.961 C 47.54 22.742 46.537 23.133 45.469 23.133 C 44.844 23.133 44.317 22.97 43.887 22.645 C 43.484 22.293 43.282 21.85 43.282 21.317 C 43.282 20.418 43.751 19.578 44.688 18.797 C 45.599 18.016 46.596 17.625 47.676 17.625"/>
  <path class="Clef" d="M 17.95 25.379 L 16.114 25.379 C 15.971 25.379 15.899 25.314 15.899 25.184 L 15.899 15.574 C 15.899 15.444 15.971 15.379 16.114 15.379 L 17.95 15.379 C 18.08 15.379 18.145 15.444 18.145 15.574 L 18.145 25.184 C 18.145 25.314 18.08 25.379 17.95 25.379 M 13.536 25.379 L 11.68 25.379 C 11.55 25.379 11.485 25.314 11.485 25.184 L 11.485 15.574 C 11.485 15.444 11.55 15.379 11.68 15.379 L 13.536 15.379 C 13.679 15.379 13.751 15.444 13.751 15.574 L 13.751 25.184 C 13.751 25.314 13.679 25.379 13.536 25.379"/>
  <path class="TimeSig" d="M 31.023 10.633 C 31.414 10.633 31.746 10.587 32.019 10.496 C 32.292 10.405 32.468 10.359 32.546 10.359 C 32.638 10.359 32.709 10.385 32.761 10.437 C 32.8 10.476 32.826 10.522 32.839 10.574 C 32.839 10.6 32.826 10.639 32.8 10.691 L 27.117 17.293 L 30.457 17.293 L 30.457 14.676 C 30.457 14.506 30.502 14.363 30.593 14.246 C 30.749 14.116 30.88 14.038 30.984 14.012 C 31.153 13.933 31.361 13.751 31.609 13.465 C 31.817 13.23 32.065 12.82 32.351 12.234 C 32.39 12.156 32.449 12.117 32.527 12.117 C 32.683 12.117 32.774 12.208 32.8 12.39 L 32.8 17.293 L 34.226 17.293 C 34.408 17.293 34.513 17.39 34.539 17.586 C 34.539 17.781 34.434 17.879 34.226 17.879 L 32.8 17.879 L 32.8 18.035 C 32.8 18.556 32.93 18.999 33.191 19.363 C 33.49 19.728 33.842 19.91 34.246 19.91 C 34.402 19.91 34.48 19.988 34.48 20.144 C 34.48 20.301 34.402 20.379 34.246 20.379 C 33.972 20.379 33.529 20.34 32.917 20.262 C 32.358 20.17 31.921 20.125 31.609 20.125 C 31.283 20.125 30.847 20.17 30.3 20.262 C 29.714 20.34 29.278 20.379 28.992 20.379 C 28.835 20.379 28.757 20.301 28.757 20.144 C 28.757 19.988 28.835 19.91 28.992 19.91 C 29.395 19.91 29.747 19.728 30.046 19.363 C 30.32 18.999 30.457 18.556 30.457 18.035 L 30.457 17.879 L 27.117 17.879 C 26.895 17.879 26.739 17.827 26.648 17.722 C 26.544 17.644 26.492 17.54 26.492 17.41 C 26.492 17.371 26.589 17.234 26.785 17 C 27.006 16.739 27.24 16.42 27.488 16.043 C 27.774 15.6 28.048 15.144 28.308 14.676 C 28.595 14.142 28.822 13.53 28.992 12.84 C 29.187 12.137 29.285 11.42 29.285 10.691 C 29.285 10.483 29.376 10.379 29.558 10.379 C 29.597 10.379 29.682 10.398 29.812 10.437 C 29.851 10.45 29.932 10.47 30.056 10.496 C 30.18 10.522 30.281 10.548 30.359 10.574 C 30.593 10.613 30.815 10.633 31.023 10.633"/>
  <path class="TimeSig" d="M 31.023 20.633 C 31.414 20.633 31.746 20.588 32.019 20.497 C 32.292 20.405 32.468 20.36 32.546 20.36 C 32.638 20.36 32.709 20.386 32.761 20.438 C 32.8 20.477 32.826 20.523 32.839 20.575 C 32.839 20.601 32.826 20.64 32.8 20.692 L 27.117 27.293 L 30.457 27.293 L 30.457 24.676 C 30.457 24.507 30.502 24.364 30.593 24.247 C 30.749 24.116 30.88 24.038 30.984 24.012 C 31.153 23.934 31.361 23.752 31.609 23.465 C 31.817 23.231 32.065 22.821 32.351 22.235 C 32.39 22.157 32.449 22.118 32.527 22.118 C 32.683 22.118 32.774 22.209 32.8 22.391 L 32.8 27.293 L 34.226 27.293 C 34.408 27.293 34.513 27.391 34.539 27.586 C 34.539 27.782 34.434 27.879 34.226 27.879 L 32.8 27.879 L 32.8 28.036 C 32.8 28.556 32.93 28.999 33.191 29.364 C 33.49 29.728 33.842 29.911 34.246 29.911 C 34.402 29.911 34.48 29.989 34.48 30.145 C 34.48 30.301 34.402 30.379 34.246 30.379 C 33.972 30.379 33.529 30.34 32.917 30.262 C 32.358 30.171 31.921 30.125 31.609 30.125 C 31.283 30.125 30.847 30.171 30.3 30.262 C 29.714 30.34 29.278 30.379 28.992 30.379 C 28.835 30.379 28.757 30.301 28.757 30.145 C 28.757 29.989 28.835 29.911 28.992 29.911 C 29.395 29.911 29.747 29.728 30.046 29.364 C 30.32 28.999 30.457 28.556 30.457 28.036 L 30.457 27.879 L 27.117 27.879 C 26.895 27.879 26.739 27.827 26.648 27.723 C 26.544 27.645 26.492 27.541 26.492 27.411 C 26.492 27.372 26.589 27.235 26.785 27 C 27.006 26.74 27.24 26.421 27.488 26.043 C 27.774 25.601 28.048 25.145 28.308 24.676 C 28.595 24.142 28.822 23.53 28.992 22.84 C 29.187 22.137 29.285 21.421 29.285 20.692 C 29.285 20.484 29.376 20.379 29.558 20.379 C 29.597 20.379 29.682 20.399 29.812 20.438 C 29.851 20.451 29.932 20.47 30.056 20.497 C 30.18 20.523 30.281 20.549 30.359 20.575 C 30.593 20.614 30.815 20.633 31.023 20.633"/>
  <path class="Beam" fill-rule="evenodd" d="M 95.33 34.13 L 114.556 34.13 L 114.556 36.63 L 95.33 36.63 L 95.33 34.13"/>
  <path class="Hook" d="M 69.213 23.407 C 69.512 23.407 69.831 23.896 70.17 24.872 C 70.495 25.836 70.658 26.754 70.658 27.626 C 70.658 28.368 70.476 29.104 70.111 29.833 C 69.734 30.615 69.284 31.292 68.763 31.865 L 67.162 33.661 C 66.667 34.234 66.224 34.898 65.834 35.654 C 65.469 36.383 65.287 37.125 65.287 37.88 L 64.662 37.88 L 64.662 32.88 L 65.287 32.88 C 65.638 32.659 66.159 32.307 66.849 31.825 C 67.162 31.591 67.631 31.2 68.256 30.654 C 68.763 30.185 69.148 29.703 69.408 29.208 C 69.681 28.687 69.818 28.16 69.818 27.626 C 69.818 26.389 69.46 25.159 68.744 23.935 C 68.744 23.935 68.744 23.909 68.744 23.857 C 68.744 23.74 68.783 23.642 68.861 23.564 C 68.965 23.46 69.082 23.407 69.213 23.407"/>
  <path class="Tuplet" d="M 103.518 42.273 C 105.111 42.013 105.908 41.46 105.908 40.613 C 105.908 40.34 105.826 40.12 105.663 39.953 C 105.5 39.786 105.285 39.703 105.018 39.703 C 104.611 39.703 104.238 39.926 103.898 40.373 L 103.738 40.323 C 103.905 39.997 104.133 39.739 104.423 39.548 C 104.713 39.358 105.031 39.263 105.378 39.263 C 105.778 39.263 106.111 39.385 106.378 39.629 C 106.645 39.872 106.778 40.181 106.778 40.553 C 106.778 40.893 106.67 41.166 106.453 41.373 C 106.236 41.58 105.825 41.8 105.218 42.033 L 105.218 42.063 C 105.858 42.356 106.178 42.853 106.178 43.553 C 106.178 44.246 105.921 44.846 105.408 45.353 C 104.895 45.86 104.221 46.113 103.388 46.113 C 102.641 46.113 102.268 45.916 102.268 45.523 C 102.268 45.263 102.415 45.133 102.708 45.133 C 102.875 45.133 103.098 45.233 103.378 45.433 C 103.658 45.633 103.888 45.733 104.068 45.733 C 104.428 45.733 104.736 45.581 104.993 45.278 C 105.25 44.975 105.378 44.58 105.378 44.093 C 105.378 43.466 105.221 43.033 104.908 42.793 C 104.595 42.553 104.131 42.433 103.518 42.433 L 103.518 42.273"/>
  <path class="NoteDot" d="M 51.947 18.68 C 51.726 18.458 51.615 18.191 51.615 17.879 C 51.615 17.566 51.726 17.299 51.947 17.078 C 52.169 16.857 52.435 16.746 52.748 16.746 C 53.06 16.746 53.327 16.857 53.549 17.078 C 53.77 17.299 53.881 17.566 53.881 17.879 C 53.881 18.191 53.77 18.458 53.549 18.68 C 53.327 18.901 53.06 19.012 52.748 19.012 C 52.435 19.012 52.169 18.901 51.947 18.68"/>
</svg>
